src/img/wind-gust.svg

<svg width="22" height="15" viewBox="0 0 22 15" fill="none" xmlns="http://www.w3.org/2000/svg">
<path d="M16.5195 5.25C15.3809 5.25 14.457 6.17383 14.457 7.3125C14.457 7.5551 14.5072 7.78335 14.5833 8H1.39453C1.01499 8 0.707031 8.30796 0.707031 8.6875C0.707031 9.06704 1.01499 9.375 1.39453 9.375H16.5195C17.6582 9.375 18.582 8.45117 18.582 7.3125C18.582 6.17383 17.6582 5.25 16.5195 5.25ZM1.39453 6.625H9.64453C10.7832 6.625 11.707 5.70117 11.707 4.5625C11.707 3.42383 10.7832 2.5 9.64453 2.5C8.50586 2.5 7.58203 3.42383 7.58203 4.5625C7.58203 4.8051 7.63218 5.03335 7.70827 5.25H1.39453C1.01499 5.25 0.707031 5.55796 0.707031 5.9375C0.707031 6.31704 1.01499 6.625 1.39453 6.625ZM12.3945 10.75C12.3542 10.75 12.3157 10.7589 12.2746 10.7625C12.2478 10.7607 12.2254 10.75 12.1985 10.75H1.5915C1.10273 10.75 0.707031 11.058 0.707031 11.4375C0.707031 11.817 1.10273 12.125 1.5915 12.125H10.4583C10.3822 12.3416 10.332 12.5708 10.332 12.8125C10.332 13.9512 11.2559 14.875 12.3945 14.875C13.5332 14.875 14.457 13.9512 14.457 12.8125C14.457 11.6738 13.5332 10.75 12.3945 10.75Z" fill="white"/>
<path d="M12.2202 1.09091H13.0909L13.8295 2.89205H13.8636L14.6023 1.09091H15.473V4H14.7884V2.21307H14.7642L14.0653 3.98153H13.6278L12.929 2.20312H12.9048V4H12.2202V1.09091ZM16.5408 4H15.7852L16.7667 1.09091H17.7028L18.6843 4H17.9286L17.2454 1.82386H17.2227L16.5408 4ZM16.44 2.85511H18.0195V3.3892H16.44V2.85511ZM19.7092 1.09091L20.2404 2.00994H20.2631L20.8001 1.09091H21.587L20.7092 2.54545L21.6154 4H20.8086L20.2631 3.07102H20.2404L19.695 4H18.8938L19.7958 2.54545L18.9165 1.09091H19.7092Z" fill="white"/>
</svg>

<svg xmlns="http://www.w3.org/2000/svg" width="22" height="15" fill="none"><path fill="#fff" d="M16.52 5.25a2.063 2.063 0 0 0-2.063 2.063c0 .242.05.47.126.687H1.395a.688.688 0 0 0 0 1.375H16.52a2.063 2.063 0 0 0 0-4.125M1.395 6.625h8.25a2.063 2.063 0 1 0-2.063-2.062c0 .242.05.47.126.687H1.395a.688.688 0 0 0 0 1.375m11 4.125c-.04 0-.08.009-.12.012-.027-.001-.05-.012-.077-.012H1.592c-.49 0-.885.308-.885.688s.396.687.885.687h8.866a2 2 0 0 0-.126.688 2.063 2.063 0 1 0 2.063-2.063m-.175-9.66h.87l.74 1.802h.034l.738-1.801h.871V4h-.685V2.213h-.024l-.699 1.769h-.437l-.699-1.779h-.024V4h-.685zM16.54 4h-.755l.982-2.91h.936L18.684 4h-.755l-.684-2.176h-.022zm-.1-1.145h1.58v.534h-1.58zm3.27-1.764.53.919h.023l.537-.92h.787l-.878 1.455L21.615 4h-.806l-.546-.929h-.023L19.695 4h-.801l.902-1.455-.88-1.454z"/></svg>
